X:117
T:My Wife has scolded me
T:Throd mo bhean a's throd i rium
R:Slow Air
S:Simon Fraser Collection
N:No.63
O:Scottish
M:C
L:1/8
Q:1/4=110
K:G Minor
D|G>^F G<B =F>D F2|GG G>A B>c d z/^f/|g>dd>c B3/2c/4d/4 F>f|
dD d>c BGG:|
d|g>dgb f>d f2|b>ag>B G/A/B/c/ d z/^f/|g>dd>c B3/2c/4d/4 F>e|
dD d>c BGG>d|g>dgb f>d f2|b>ag>B G/A/B/c/ d>^f|
g>dd>c B3/2c/4d/4 F>e|dD d>c BGG||

